X: 3806
T: Summer Wooing
P: Miss Brooke
C:J. Scott Skinner
R:Reel (8x32)
B:RSCDS 38-6
Z:Anselm Lingnau <anselm@strathspey.org>
M:2/4
L:1/16
K:A
E2|:"A"A2A2 Aaag|"D"gffe "A"e4|"A"a2ag "F#m"agfe|"Bm"dcBA "E7"GEFG|
    "A"A2A2 Aaag|"D"gffe "A"e4|"D"f2fe "Bm"dcBA|1"E7"GABG "A"A2E2:|2 \
                                                 "E7"GABG "A"AGAB||
|:"F#m"c2cA F2F2|fgaf c4|"D"f2fe "Bm"d2dc|B2BA "C#7"GAB2|
  "F#m"c2cA F2F2|fgaf c4|"D"f2fe "Bm"dcBA|1"E7"cBAG "A"AGAB:|2"E7"GABG "A"A2|]
%%center Book38/3806-Summer_Wooing-AL.abc

%%sep 1 1 500
%%sep 1 1 500

